<?xml version="1.0" encoding="UTF-8"?>
<map version="1.10" tiledversion="1.11.0" orientation="orthogonal" renderorder="right-down" width="30" height="20" tilewidth="16" tileheight="16" infinite="1" nextlayerid="2" nextobjectid="1">
 <editorsettings>
  <export target="lua/main.lua" format="lua"/>
 </editorsettings>
 <tileset firstgid="1" name="Overworld" tilewidth="16" tileheight="16" tilecount="1440" columns="40">
  <image source="../images/gfx/Overworld.png" width="640" height="576"/>
  <wangsets>
   <wangset name="outside" type="mixed" tile="-1">
    <wangcolor name="cut grass" color="#00ff7f" tile="-1" probability="1"/>
    <wangcolor name="wild grass" color="#00aa00" tile="-1" probability="1"/>
    <wangcolor name="water" color="#0000ff" tile="-1" probability="1"/>
    <wangtile tileid="0" wangid="2,2,2,2,2,2,2,2"/>
    <wangtile tileid="120" wangid="2,2,2,1,2,2,2,2"/>
    <wangtile tileid="121" wangid="2,2,2,1,1,1,2,2"/>
    <wangtile tileid="122" wangid="2,2,2,2,2,1,2,2"/>
    <wangtile tileid="160" wangid="2,1,1,1,2,2,2,2"/>
    <wangtile tileid="161" wangid="1,1,1,1,1,1,1,1"/>
    <wangtile tileid="162" wangid="2,2,2,2,2,1,1,1"/>
    <wangtile tileid="200" wangid="2,1,2,2,2,2,2,2"/>
    <wangtile tileid="201" wangid="1,1,2,2,2,2,2,1"/>
    <wangtile tileid="202" wangid="2,2,2,2,2,2,2,1"/>
    <wangtile tileid="240" wangid="1,1,2,2,2,1,1,1"/>
    <wangtile tileid="241" wangid="1,1,1,1,2,2,2,1"/>
    <wangtile tileid="242" wangid="2,2,2,3,2,2,2,2"/>
    <wangtile tileid="243" wangid="2,2,2,3,3,3,2,2"/>
    <wangtile tileid="244" wangid="2,2,2,2,2,3,2,2"/>
    <wangtile tileid="255" wangid="1,1,1,3,1,1,1,1"/>
    <wangtile tileid="256" wangid="1,1,1,3,3,3,1,1"/>
    <wangtile tileid="257" wangid="1,1,1,1,1,3,1,1"/>
    <wangtile tileid="280" wangid="2,2,2,1,1,1,1,1"/>
    <wangtile tileid="281" wangid="2,1,1,1,1,1,2,2"/>
    <wangtile tileid="282" wangid="2,3,3,3,2,2,2,2"/>
    <wangtile tileid="283" wangid="3,3,3,3,3,3,3,3"/>
    <wangtile tileid="284" wangid="2,2,2,2,2,3,3,3"/>
    <wangtile tileid="295" wangid="1,3,3,3,1,1,1,1"/>
    <wangtile tileid="297" wangid="1,1,1,1,1,3,3,3"/>
    <wangtile tileid="322" wangid="2,3,2,2,2,2,2,2"/>
    <wangtile tileid="323" wangid="3,3,2,2,2,2,2,3"/>
    <wangtile tileid="324" wangid="2,2,2,2,2,2,2,3"/>
    <wangtile tileid="335" wangid="1,3,1,1,1,1,1,1"/>
    <wangtile tileid="336" wangid="3,3,1,1,1,1,1,3"/>
    <wangtile tileid="337" wangid="1,1,1,1,1,1,1,3"/>
    <wangtile tileid="362" wangid="3,3,2,2,2,3,3,3"/>
    <wangtile tileid="363" wangid="3,3,3,3,2,2,2,3"/>
    <wangtile tileid="375" wangid="3,3,1,1,1,3,3,3"/>
    <wangtile tileid="376" wangid="3,3,3,3,1,1,1,3"/>
    <wangtile tileid="402" wangid="2,2,2,3,3,3,3,3"/>
    <wangtile tileid="403" wangid="2,3,3,3,3,3,2,2"/>
    <wangtile tileid="415" wangid="1,1,1,3,3,3,3,3"/>
    <wangtile tileid="416" wangid="1,3,3,3,3,3,1,1"/>
   </wangset>
  </wangsets>
 </tileset>
 <layer id="1" name="Tile Layer 1" width="30" height="20">
  <data encoding="csv">
   <chunk x="-16" y="-16" width="16" height="16">
1,1,1,1,1,1,1,1,1,1,1,1,1,1,1,1,
1,121,122,122,122,122,122,122,122,122,122,122,122,122,122,122,
1,161,162,162,162,162,162,162,162,162,162,162,162,162,162,162,
1,161,162,162,162,162,162,162,162,162,162,162,162,162,162,162,
1,161,162,162,241,202,202,202,202,202,202,202,202,202,202,202,
1,161,162,162,163,1,1,1,1,1,1,1,1,1,1,1,
1,161,162,162,163,1,243,244,244,244,244,244,244,244,244,244,
1,161,162,162,163,1,283,284,284,284,284,284,284,284,284,284,
1,161,162,162,163,1,283,284,284,284,284,284,284,284,284,284,
1,161,162,162,163,1,283,284,284,363,324,324,324,324,324,324,
1,161,162,162,163,1,283,284,284,285,1,1,1,1,1,1,
1,161,162,162,163,1,283,284,284,285,1,1,1,1,1,1,
1,161,162,162,163,1,283,284,284,285,1,1,1,1,1,1,
1,161,162,162,163,1,283,284,284,285,1,1,1,1,1,1,
1,161,162,162,163,1,283,284,284,285,1,1,1,1,1,1,
1,161,162,162,163,1,283,284,284,285,1,1,1,1,1,1
</chunk>
   <chunk x="0" y="-16" width="16" height="16">
1,1,1,1,1,1,1,1,1,1,1,1,1,1,1,1,
122,122,122,122,122,122,122,122,122,122,122,122,122,122,123,1,
162,162,162,162,162,162,162,162,162,162,162,162,162,162,163,1,
162,162,162,162,162,162,162,162,162,162,162,162,162,162,163,1,
202,202,202,202,202,202,202,202,202,202,202,242,162,162,163,1,
1,1,1,1,1,1,1,1,1,1,1,161,162,162,163,1,
244,244,244,244,244,244,244,244,244,245,1,161,162,162,163,1,
284,284,284,284,284,284,284,284,284,285,1,161,162,162,163,1,
284,284,284,284,284,284,284,284,284,285,1,161,162,162,163,1,
324,324,324,324,324,324,364,284,284,285,1,161,162,162,163,1,
1,1,1,1,1,1,283,284,284,285,1,161,162,162,163,1,
1,1,1,1,1,1,283,284,284,285,1,161,162,162,163,1,
1,1,1,1,1,1,283,284,284,285,1,161,162,162,163,1,
1,1,1,1,1,1,283,284,284,285,1,161,162,162,163,1,
1,1,1,1,1,1,283,284,284,285,1,161,162,162,163,1,
1,1,1,1,1,1,283,284,284,285,1,161,162,162,163,1
</chunk>
   <chunk x="-16" y="0" width="16" height="16">
1,161,162,162,163,1,283,284,284,285,1,1,1,1,1,1,
1,161,162,162,163,1,283,284,284,285,1,1,1,1,1,1,
1,161,162,162,163,1,283,284,284,285,1,1,1,1,1,1,
1,161,162,162,163,1,283,284,284,285,1,1,1,1,1,1,
1,161,162,162,163,1,283,284,284,285,1,1,1,1,1,1,
1,161,162,162,163,1,283,284,284,285,1,1,1,1,1,1,
1,161,162,162,163,1,283,284,284,403,244,244,244,244,244,244,
1,161,162,162,163,1,283,284,284,284,284,284,284,284,284,284,
1,161,162,162,163,1,283,284,284,284,284,284,284,284,284,284,
1,161,162,162,163,1,323,324,324,324,324,324,324,324,324,324,
1,161,162,162,163,1,1,1,1,1,1,1,1,1,1,1,
1,161,162,162,281,122,122,122,122,122,122,122,122,122,122,122,
1,161,162,162,162,162,162,162,162,162,162,162,162,162,162,162,
1,161,162,162,162,162,162,162,162,162,162,162,162,162,162,162,
1,201,202,202,202,202,202,202,202,202,202,202,202,202,202,202,
1,1,1,1,1,1,1,1,1,1,1,1,1,1,1,1
</chunk>
   <chunk x="0" y="0" width="16" height="16">
1,1,1,1,1,1,283,284,284,285,1,161,162,162,163,1,
1,1,1,1,1,1,283,284,284,285,1,161,162,162,163,1,
1,1,1,1,1,1,283,284,284,285,1,161,162,162,163,1,
1,1,1,1,1,1,283,284,284,285,1,161,162,162,163,1,
1,1,1,1,1,1,283,284,284,285,1,161,162,162,163,1,
1,1,1,1,1,1,283,284,284,285,1,161,162,162,163,1,
244,244,244,244,244,244,404,284,284,285,1,161,162,162,163,1,
284,284,284,284,284,284,284,284,284,285,1,161,162,162,163,1,
284,284,284,284,284,284,284,284,284,285,1,161,162,162,163,1,
324,324,324,324,324,324,324,324,324,325,1,161,162,162,163,1,
1,1,1,1,1,1,1,1,1,1,1,161,162,162,163,1,
122,122,122,122,122,122,122,122,122,122,122,282,162,162,163,1,
162,162,162,162,162,162,162,162,162,162,162,162,162,162,163,1,
162,162,162,162,162,162,162,162,162,162,162,162,162,162,163,1,
202,202,202,202,202,202,202,202,202,202,202,202,202,202,203,1,
1,1,1,1,1,1,1,1,1,1,1,1,1,1,1,1
</chunk>
  </data>
 </layer>
</map>
